packages/lightning/logo.svg

<svg fill="none" viewBox="0 0 2500 999" xmlns="http://www.w3.org/2000/svg">
<rect width="2500" height="999" fill="#0d1117"/>
<g style="mix-blend-mode:luminosity">
<mask id="a" x="108" y="157" width="2284" height="685" style="mask-type:luminance" maskUnits="userSpaceOnUse">
<path d="m124.28 504.62 48.403-51.841 34.313-36.406 23.311-25.31 194.12-207.91c2.78-2.981 5.786-6.069 8.977-9.034 9.845-9.147 21.451-17.117 33.621-17.117 4.728 0 9.219 1.225 13.337 3.638 5.802 3.37 9.42 8.102 11.526 13.491 6.094 15.592-0.472 36.683-3.427 46.178l-3.381 10.847-36.711 117.78-24.056 77.178 155.74 0.031c18.422 0 29.233 5.8 35.548 12.136 3.455 3.467 5.564 7.094 6.837 10.019 0.584 1.345 1.156 2.92 1.62 4.705 1.157 4.45 1.648 10.202 0 16.931-1.196 4.888-3.521 10.292-7.537 16.087-1.88 2.713-4.131 5.512-6.81 8.384l-48.405 51.841-29.938 31.376-27.657 30.307-181.67 194.56-1e-3 2e-3 -0.016 0.017-12.461 13.346c-2.788 2.988-5.801 6.085-9 9.056-9.835 9.135-21.429 17.087-33.629 17.087-4.712 0-9.195-1.225-13.298-3.623-5.795-3.368-9.412-8.094-11.52-13.475-6.114-15.611 0.471-36.738 3.43-46.229l11.551-37.062 1e-3 -3e-3 52.579-168.69-155.75-0.03c-11.21 0-19.601-2.148-25.877-5.257-4.034-2-7.194-4.396-9.665-6.876-3.459-3.469-5.569-7.1-6.843-10.03-3.098-7.114-5.851-20.735 5.918-37.717 1.88-2.713 4.13-5.511 6.809-8.383z" fill="#fff"/>
<path d="m790.81 354.09h33.522v234.09c0 10.606 1.184 18.04 3.552 22.301 2.367 4.261 7.244 6.297 14.63 6.108 3.978-0.189 6.913-0.474 8.807-0.852 1.989-0.474 3.788-0.947 5.398-1.421l6.818 28.977c-2.936 0.853-6.629 1.61-11.08 2.273-4.45 0.758-9.09 1.137-13.92 1.137-15.909 0-27.841-4.357-35.795-13.069-7.955-8.712-11.932-20.833-11.932-36.363v-243.18zm103.52 290.91v-218.18h33.523v218.18h-33.523zm17.046-254.54c-6.534 0-12.169-2.226-16.904-6.677-4.64-4.45-6.96-9.801-6.96-16.051s2.32-11.6 6.96-16.051c4.735-4.451 10.37-6.676 16.904-6.676s12.121 2.225 16.761 6.676c4.735 4.451 7.102 9.801 7.102 16.051s-2.367 11.601-7.102 16.051c-4.64 4.451-10.227 6.677-16.761 6.677zm165.94 340.91c-16.19 0-30.11-2.084-41.76-6.25-11.65-4.072-21.35-9.47-29.12-16.194-7.669-6.628-13.777-13.731-18.322-21.306l26.702-18.75c3.03 3.977 6.87 8.522 11.51 13.636 4.64 5.208 10.98 9.706 19.03 13.494 8.15 3.883 18.8 5.824 31.96 5.824 17.62 0 32.15-4.261 43.61-12.784s17.19-21.875 17.19-40.057v-44.318h-2.84c-2.47 3.977-5.97 8.902-10.51 14.773-4.46 5.776-10.89 10.937-19.32 15.483-8.34 4.451-19.6 6.676-33.81 6.676-17.61 0-33.43-4.167-47.44-12.5-13.92-8.333-24.955-20.455-33.099-36.364-8.049-15.909-12.074-35.227-12.074-57.954 0-22.349 3.93-41.809 11.79-58.381 7.86-16.667 18.793-29.545 32.813-38.636 14.01-9.186 30.21-13.779 48.58-13.779 14.2 0 25.47 2.368 33.81 7.103 8.42 4.64 14.86 9.943 19.31 15.909 4.55 5.871 8.05 10.7 10.52 14.488h3.4v-34.659h32.39v224.43c0 18.75-4.26 33.996-12.78 45.739-8.43 11.837-19.8 20.502-34.09 25.994-14.21 5.587-30.02 8.381-47.45 8.381zm-1.13-119.89c13.44 0 24.81-3.077 34.09-9.233 9.28-6.155 16.33-15.009 21.16-26.562s7.25-25.379 7.25-41.477c0-15.72-2.37-29.593-7.11-41.62-4.73-12.026-11.74-21.449-21.02-28.267s-20.74-10.227-34.37-10.227c-14.21 0-26.05 3.598-35.52 10.795-9.37 7.197-16.43 16.856-21.16 28.978-4.64 12.121-6.96 25.568-6.96 40.341 0 15.151 2.37 28.551 7.1 40.198 4.83 11.553 11.93 20.644 21.31 27.273 9.47 6.534 21.21 9.801 35.23 9.801zm190.34-97.727v131.25h-33.53v-290.91h33.53v106.82h2.84c5.11-11.269 12.78-20.218 23.01-26.847 10.32-6.723 24.05-10.085 41.19-10.085 14.87 0 27.89 2.983 39.06 8.949 11.18 5.871 19.84 14.915 26 27.131 6.25 12.121 9.37 27.557 9.37 46.307v138.64h-33.52v-136.36c0-17.329-4.5-30.729-13.49-40.198-8.9-9.565-21.26-14.347-37.08-14.347-10.98 0-20.83 2.32-29.54 6.96-8.62 4.64-15.44 11.411-20.46 20.313-4.92 8.901-7.38 19.697-7.38 32.386zm297.69-86.932v28.409h-113.07v-28.409h113.07zm-80.11-52.273h33.52v207.96c0 9.47 1.37 16.572 4.12 21.307 2.84 4.64 6.44 7.765 10.79 9.375 4.45 1.515 9.14 2.273 14.07 2.273 3.69 0 6.72-0.19 9.09-0.569 2.36-0.473 4.26-0.852 5.68-1.136l6.82 30.114c-2.28 0.852-5.45 1.704-9.52 2.556-4.07 0.947-9.23 1.421-15.48 1.421-9.47 0-18.75-2.036-27.84-6.108-9-4.072-16.48-10.275-22.45-18.608-5.87-8.333-8.8-18.845-8.8-31.534v-217.05zm164.06 139.2v131.25h-33.53v-218.18h32.39v34.091h2.84c5.12-11.079 12.88-19.981 23.3-26.704 10.41-6.819 23.86-10.228 40.34-10.228 14.77 0 27.7 3.031 38.78 9.091 11.08 5.966 19.69 15.057 25.85 27.273 6.15 12.121 9.23 27.462 9.23 46.023v138.64h-33.52v-136.36c0-17.14-4.45-30.492-13.35-40.056-8.9-9.66-21.12-14.489-36.65-14.489-10.7 0-20.27 2.32-28.69 6.96-8.34 4.64-14.92 11.411-19.75 20.313-4.83 8.901-7.24 19.697-7.24 32.386zm200.46 131.25v-218.18h33.52v218.18h-33.52zm17.04-254.54c-6.53 0-12.16-2.226-16.9-6.677-4.64-4.45-6.96-9.801-6.96-16.051s2.32-11.6 6.96-16.051c4.74-4.451 10.37-6.676 16.9-6.676 6.54 0 12.13 2.225 16.77 6.676 4.73 4.451 7.1 9.801 7.1 16.051s-2.37 11.601-7.1 16.051c-4.64 4.451-10.23 6.677-16.77 6.677zm111.4 123.3v131.25h-33.52v-218.18h32.39v34.091h2.84c5.11-11.079 12.88-19.981 23.29-26.704 10.42-6.819 23.87-10.228 40.34-10.228 14.78 0 27.7 3.031 38.78 9.091 11.08 5.966 19.7 15.057 25.86 27.273 6.15 12.121 9.23 27.462 9.23 46.023v138.64h-33.52v-136.36c0-17.14-4.46-30.492-13.36-40.056-8.9-9.66-21.11-14.489-36.64-14.489-10.71 0-20.27 2.32-28.7 6.96-8.33 4.64-14.91 11.411-19.74 20.313-4.83 8.901-7.25 19.697-7.25 32.386zm288.53 217.61c-16.19 0-30.11-2.084-41.76-6.25-11.65-4.072-21.35-9.47-29.12-16.194-7.67-6.628-13.78-13.731-18.32-21.306l26.7-18.75c3.03 3.977 6.87 8.522 11.51 13.636 4.64 5.208 10.98 9.706 19.03 13.494 8.15 3.883 18.8 5.824 31.96 5.824 17.62 0 32.15-4.261 43.61-12.784s17.19-21.875 17.19-40.057v-44.318h-2.84c-2.46 3.977-5.97 8.902-10.51 14.773-4.45 5.776-10.89 10.937-19.32 15.483-8.33 4.451-19.6 6.676-33.81 6.676-17.61 0-33.43-4.167-47.44-12.5-13.92-8.333-24.95-20.455-33.1-36.364-8.05-15.909-12.07-35.227-12.07-57.954 0-22.349 3.93-41.809 11.79-58.381 7.86-16.667 18.8-29.545 32.81-38.636 14.02-9.186 30.21-13.779 48.58-13.779 14.2 0 25.47 2.368 33.81 7.103 8.42 4.64 14.86 9.943 19.32 15.909 4.54 5.871 8.04 10.7 10.51 14.488h3.41v-34.659h32.38v224.43c0 18.75-4.26 33.996-12.78 45.739-8.43 11.837-19.79 20.502-34.09 25.994-14.21 5.587-30.02 8.381-47.45 8.381zm-1.13-119.89c13.44 0 24.81-3.077 34.09-9.233 9.28-6.155 16.33-15.009 21.16-26.562s7.25-25.379 7.25-41.477c0-15.72-2.37-29.593-7.1-41.62-4.74-12.026-11.75-21.449-21.03-28.267s-20.74-10.227-34.37-10.227c-14.21 0-26.04 3.598-35.51 10.795-9.38 7.197-16.43 16.856-21.17 28.978-4.64 12.121-6.96 25.568-6.96 40.341 0 15.151 2.37 28.551 7.1 40.198 4.83 11.553 11.93 20.644 21.31 27.273 9.47 6.534 21.21 9.801 35.23 9.801z" fill="#fff"/>
</mask>
<g mask="url(#a)">
<g style="mix-blend-mode:luminosity">
<g filter="url(#b)" style="mix-blend-mode:luminosity">
<path d="m-648.88 140.49 2549.1-1266.5 198.11 452.66-2549.1 1266.5-198.11-452.66z" fill="#f00"/>
<path d="m-445.14 593.16 2549.1-1266.5 198.11 452.67-2549.1 1266.5-198.11-452.66z" fill="#FFA500"/>
<path d="m-247.02 1045.8 2549.1-1266.5 198.11 452.67-2549.1 1266.5-198.11-452.67z" fill="#ff0"/>
<path d="m-48.912 1498.5 2549.1-1266.5 198.11 452.67-2549.1 1266.5-198.11-452.66z" fill="#008000"/>
<path d="m149.2 1951.2 2549.1-1266.5 198.11 452.66-2549.1 1266.5-198.11-452.67z" fill="#00f"/>
<path d="m-648.88 140.5 2549.1-1266.5 1194.3 2716-2549.1 1266.5-1194.3-2716z" fill="#fff" fill-opacity=".2"/>
</g>
</g>
</g>
</g>
<defs>
<filter id="b" x="-1366.1" y="-1843.2" width="5177.8" height="5416.9" color-interpolation-filters="sRGB" filterUnits="userSpaceOnUse">
<feFlood flood-opacity="0" result="BackgroundImageFix"/>
<feBlend in="SourceGraphic" in2="BackgroundImageFix" result="shape"/>
<feGaussianBlur result="effect1_foregroundBlur_520_98" stdDeviation="358.594"/>
</filter>
</defs>
</svg>

<svg width="2500" height="999" viewBox="0 0 2500 999" fill="none" xmlns="http://www.w3.org/2000/svg">
<rect width="2500" height="999" fill="#0d1117"/>
<g style="mix-blend-mode:luminosity">
<mask id="mask0_520_98" style="mask-type:luminance" maskUnits="userSpaceOnUse" x="108" y="157" width="2284" height="685">
<path d="M124.284 504.622L172.687 452.781L207 416.375L230.311 391.065L424.435 183.151C427.215 180.17 430.221 177.082 433.412 174.117C443.257 164.97 454.863 157 467.033 157C471.761 157 476.252 158.225 480.37 160.638C486.172 164.008 489.79 168.74 491.896 174.129C497.99 189.721 491.424 210.812 488.469 220.307L485.088 231.154L472.432 271.759L448.377 348.937L424.321 426.115L580.06 426.146C598.482 426.146 609.293 431.946 615.608 438.282C619.063 441.749 621.172 445.376 622.445 448.301C623.029 449.646 623.601 451.221 624.065 453.006C625.222 457.456 625.713 463.208 624.065 469.937C622.869 474.825 620.544 480.229 616.528 486.024C614.648 488.737 612.397 491.536 609.718 494.408L561.313 546.249L531.375 577.625L503.718 607.932L322.052 802.492L322.051 802.494L322.035 802.511L309.574 815.857C306.786 818.845 303.773 821.942 300.574 824.913C290.739 834.048 279.145 842 266.945 842C262.233 842 257.75 840.775 253.647 838.377C247.852 835.009 244.235 830.283 242.127 824.902C236.013 809.291 242.598 788.164 245.557 778.673L257.108 741.611L257.109 741.608L309.688 572.915L153.942 572.885C142.732 572.885 134.341 570.737 128.065 567.628C124.031 565.628 120.871 563.232 118.4 560.752C114.941 557.283 112.831 553.652 111.557 550.722C108.459 543.608 105.706 529.987 117.475 513.005C119.355 510.292 121.605 507.494 124.284 504.622Z" fill="white"/>
<path d="M790.807 354.091H824.329V588.182C824.329 598.788 825.513 606.222 827.881 610.483C830.248 614.744 835.125 616.78 842.511 616.591C846.489 616.402 849.424 616.117 851.318 615.739C853.307 615.265 855.106 614.792 856.716 614.318L863.534 643.295C860.598 644.148 856.905 644.905 852.454 645.568C848.004 646.326 843.364 646.705 838.534 646.705C822.625 646.705 810.693 642.348 802.739 633.636C794.784 624.924 790.807 612.803 790.807 597.273V354.091ZM894.322 645V426.818H927.845V645H894.322ZM911.368 390.455C904.834 390.455 899.199 388.229 894.464 383.778C889.824 379.328 887.504 373.977 887.504 367.727C887.504 361.477 889.824 356.127 894.464 351.676C899.199 347.225 904.834 345 911.368 345C917.902 345 923.489 347.225 928.129 351.676C932.864 356.127 935.231 361.477 935.231 367.727C935.231 373.977 932.864 379.328 928.129 383.778C923.489 388.229 917.902 390.455 911.368 390.455ZM1077.31 731.364C1061.12 731.364 1047.2 729.28 1035.55 725.114C1023.9 721.042 1014.2 715.644 1006.43 708.92C998.761 702.292 992.653 695.189 988.108 687.614L1014.81 668.864C1017.84 672.841 1021.68 677.386 1026.32 682.5C1030.96 687.708 1037.3 692.206 1045.35 695.994C1053.5 699.877 1064.15 701.818 1077.31 701.818C1094.93 701.818 1109.46 697.557 1120.92 689.034C1132.38 680.511 1138.11 667.159 1138.11 648.977V604.659H1135.27C1132.8 608.636 1129.3 613.561 1124.76 619.432C1120.3 625.208 1113.87 630.369 1105.44 634.915C1097.1 639.366 1085.84 641.591 1071.63 641.591C1054.02 641.591 1038.2 637.424 1024.19 629.091C1010.27 620.758 999.235 608.636 991.091 592.727C983.042 576.818 979.017 557.5 979.017 534.773C979.017 512.424 982.947 492.964 990.807 476.392C998.667 459.725 1009.6 446.847 1023.62 437.756C1037.63 428.57 1053.83 423.977 1072.2 423.977C1086.4 423.977 1097.67 426.345 1106.01 431.08C1114.43 435.72 1120.87 441.023 1125.32 446.989C1129.87 452.86 1133.37 457.689 1135.84 461.477H1139.24V426.818H1171.63V651.25C1171.63 670 1167.37 685.246 1158.85 696.989C1150.42 708.826 1139.05 717.491 1124.76 722.983C1110.55 728.57 1094.74 731.364 1077.31 731.364ZM1076.18 611.477C1089.62 611.477 1100.99 608.4 1110.27 602.244C1119.55 596.089 1126.6 587.235 1131.43 575.682C1136.26 564.129 1138.68 550.303 1138.68 534.205C1138.68 518.485 1136.31 504.612 1131.57 492.585C1126.84 480.559 1119.83 471.136 1110.55 464.318C1101.27 457.5 1089.81 454.091 1076.18 454.091C1061.97 454.091 1050.13 457.689 1040.66 464.886C1031.29 472.083 1024.23 481.742 1019.5 493.864C1014.86 505.985 1012.54 519.432 1012.54 534.205C1012.54 549.356 1014.91 562.756 1019.64 574.403C1024.47 585.956 1031.57 595.047 1040.95 601.676C1050.42 608.21 1062.16 611.477 1076.18 611.477ZM1266.52 513.75V645H1232.99V354.091H1266.52V460.909H1269.36C1274.47 449.64 1282.14 440.691 1292.37 434.062C1302.69 427.339 1316.42 423.977 1333.56 423.977C1348.43 423.977 1361.45 426.96 1372.62 432.926C1383.8 438.797 1392.46 447.841 1398.62 460.057C1404.87 472.178 1407.99 487.614 1407.99 506.364V645H1374.47V508.636C1374.47 491.307 1369.97 477.907 1360.98 468.438C1352.08 458.873 1339.72 454.091 1323.9 454.091C1312.92 454.091 1303.07 456.411 1294.36 461.051C1285.74 465.691 1278.92 472.462 1273.9 481.364C1268.98 490.265 1266.52 501.061 1266.52 513.75ZM1564.21 426.818V455.227H1451.14V426.818H1564.21ZM1484.1 374.545H1517.62V582.5C1517.62 591.97 1518.99 599.072 1521.74 603.807C1524.58 608.447 1528.18 611.572 1532.53 613.182C1536.98 614.697 1541.67 615.455 1546.6 615.455C1550.29 615.455 1553.32 615.265 1555.69 614.886C1558.05 614.413 1559.95 614.034 1561.37 613.75L1568.19 643.864C1565.91 644.716 1562.74 645.568 1558.67 646.42C1554.6 647.367 1549.44 647.841 1543.19 647.841C1533.72 647.841 1524.44 645.805 1515.35 641.733C1506.35 637.661 1498.87 631.458 1492.9 623.125C1487.03 614.792 1484.1 604.28 1484.1 591.591V374.545ZM1648.16 513.75V645H1614.63V426.818H1647.02V460.909H1649.86C1654.98 449.83 1662.74 440.928 1673.16 434.205C1683.57 427.386 1697.02 423.977 1713.5 423.977C1728.27 423.977 1741.2 427.008 1752.28 433.068C1763.36 439.034 1771.97 448.125 1778.13 460.341C1784.28 472.462 1787.36 487.803 1787.36 506.364V645H1753.84V508.636C1753.84 491.496 1749.39 478.144 1740.49 468.58C1731.59 458.92 1719.37 454.091 1703.84 454.091C1693.14 454.091 1683.57 456.411 1675.15 461.051C1666.81 465.691 1660.23 472.462 1655.4 481.364C1650.57 490.265 1648.16 501.061 1648.16 513.75ZM1848.62 645V426.818H1882.14V645H1848.62ZM1865.66 390.455C1859.13 390.455 1853.5 388.229 1848.76 383.778C1844.12 379.328 1841.8 373.977 1841.8 367.727C1841.8 361.477 1844.12 356.127 1848.76 351.676C1853.5 347.225 1859.13 345 1865.66 345C1872.2 345 1877.79 347.225 1882.43 351.676C1887.16 356.127 1889.53 361.477 1889.53 367.727C1889.53 373.977 1887.16 379.328 1882.43 383.778C1877.79 388.229 1872.2 390.455 1865.66 390.455ZM1977.06 513.75V645H1943.54V426.818H1975.93V460.909H1978.77C1983.88 449.83 1991.65 440.928 2002.06 434.205C2012.48 427.386 2025.93 423.977 2042.4 423.977C2057.18 423.977 2070.1 427.008 2081.18 433.068C2092.26 439.034 2100.88 448.125 2107.04 460.341C2113.19 472.462 2116.27 487.803 2116.27 506.364V645H2082.75V508.636C2082.75 491.496 2078.29 478.144 2069.39 468.58C2060.49 458.92 2048.28 454.091 2032.75 454.091C2022.04 454.091 2012.48 456.411 2004.05 461.051C1995.72 465.691 1989.14 472.462 1984.31 481.364C1979.48 490.265 1977.06 501.061 1977.06 513.75ZM2265.59 731.364C2249.4 731.364 2235.48 729.28 2223.83 725.114C2212.18 721.042 2202.48 715.644 2194.71 708.92C2187.04 702.292 2180.93 695.189 2176.39 687.614L2203.09 668.864C2206.12 672.841 2209.96 677.386 2214.6 682.5C2219.24 687.708 2225.58 692.206 2233.63 695.994C2241.78 699.877 2252.43 701.818 2265.59 701.818C2283.21 701.818 2297.74 697.557 2309.2 689.034C2320.66 680.511 2326.39 667.159 2326.39 648.977V604.659H2323.55C2321.09 608.636 2317.58 613.561 2313.04 619.432C2308.59 625.208 2302.15 630.369 2293.72 634.915C2285.39 639.366 2274.12 641.591 2259.91 641.591C2242.3 641.591 2226.48 637.424 2212.47 629.091C2198.55 620.758 2187.52 608.636 2179.37 592.727C2171.32 576.818 2167.3 557.5 2167.3 534.773C2167.3 512.424 2171.23 492.964 2179.09 476.392C2186.95 459.725 2197.89 446.847 2211.9 437.756C2225.92 428.57 2242.11 423.977 2260.48 423.977C2274.68 423.977 2285.95 426.345 2294.29 431.08C2302.71 435.72 2309.15 441.023 2313.61 446.989C2318.15 452.86 2321.65 457.689 2324.12 461.477H2327.53V426.818H2359.91V651.25C2359.91 670 2355.65 685.246 2347.13 696.989C2338.7 708.826 2327.34 717.491 2313.04 722.983C2298.83 728.57 2283.02 731.364 2265.59 731.364ZM2264.46 611.477C2277.9 611.477 2289.27 608.4 2298.55 602.244C2307.83 596.089 2314.88 587.235 2319.71 575.682C2324.54 564.129 2326.96 550.303 2326.96 534.205C2326.96 518.485 2324.59 504.612 2319.86 492.585C2315.12 480.559 2308.11 471.136 2298.83 464.318C2289.55 457.5 2278.09 454.091 2264.46 454.091C2250.25 454.091 2238.42 457.689 2228.95 464.886C2219.57 472.083 2212.52 481.742 2207.78 493.864C2203.14 505.985 2200.82 519.432 2200.82 534.205C2200.82 549.356 2203.19 562.756 2207.92 574.403C2212.75 585.956 2219.85 595.047 2229.23 601.676C2238.7 608.21 2250.44 611.477 2264.46 611.477Z" fill="white"/>
</mask>
<g mask="url(#mask0_520_98)">
<g style="mix-blend-mode:luminosity">
<g style="mix-blend-mode:luminosity" filter="url(#filter0_f_520_98)">
<path d="M-648.875 140.49L1900.25 -1126L2098.36 -673.335L-450.763 593.155L-648.875 140.49Z" fill="#FF0000"/>
<path d="M-445.138 593.155L2103.99 -673.334L2302.1 -220.668L-247.025 1045.82L-445.138 593.155Z" fill="#FFA500"/>
<path d="M-247.025 1045.82L2302.1 -220.667L2500.21 232L-48.9116 1498.49L-247.025 1045.82Z" fill="#FFFF00"/>
<path d="M-48.9116 1498.49L2500.21 231.999L2698.32 684.665L149.201 1951.15L-48.9116 1498.49Z" fill="#008000"/>
<path d="M149.201 1951.15L2698.33 684.665L2896.44 1137.33L347.314 2403.82L149.201 1951.15Z" fill="#0000FF"/>
<path d="M-648.875 140.496L1900.26 -1126L3094.56 1590L545.426 2856.5L-648.875 140.496Z" fill="white" fill-opacity="0.2"/>
</g>
</g>
</g>
</g>
<defs>
<filter id="filter0_f_520_98" x="-1366.06" y="-1843.19" width="5177.81" height="5416.88" filterUnits="userSpaceOnUse" color-interpolation-filters="sRGB">
<feFlood flood-opacity="0" result="BackgroundImageFix"/>
<feBlend mode="normal" in="SourceGraphic" in2="BackgroundImageFix" result="shape"/>
<feGaussianBlur stdDeviation="358.594" result="effect1_foregroundBlur_520_98"/>
</filter>
</defs>
</svg>
